X:1055
T:Faut Marit Leken
S:Älvdalspolska
S:Efter Jonas "Jalle" Hjalmarsson
Z:[[http://www.bluerose.karenlmyers.org/IncipitsPolskaAlvdalen3.html|Karen Myers (#1055)]]
Z:Upptecknad 2/1998
M:3/4
L:1/8
R:Polska
O:Älvdalen, Dalarna
K:Em
(3A2 (^c2 d2) e>c | (3d2 (B2 G2) (B2 | d2) f2 (3e(fe) | d2 B4 :: (3:2:4B2 G2 FG A>F |
((3:2:4FE)E2 G2 B2- | (3:2:4B2 G2 FG A>F | ((3:2:4FE)E2 G2 B2- | (3:2:4B2 G2 FG A>F | (F<E) E4 :|
